X:237
T:Tyburn hill (Fone)
%%VWML:SBG-1-2-781-0
F:http://www.vwml.org/record/SBG/1/2/781
Z:Original Sibelius transcriptions by M. & S. Graebe
M:4/4
I:linebreak $
K:Eb
V:1 treble nm="P1"
V:1
 B,/ | E F G A | B3 (3B/A/F/ | E3 (3E/C/D/ | B,3 B, | E F G A |$ [EB]3 (3E/F/G/ | A2 A3/2 G/ | %8
 B B c A | B3 (3G/F/D/ | E2 x2 | %11

